!!!COM: Palestrina, Giovanni Perluigi da
!!!OPR: Missa Sicut lilium inter spinas
!!!OTL: Gloria
**kern	**kern	**kern	**kern	**kern
*Ibass	*Itenor	*Itenor	*Icalto	*Icant
!Bassus	!Tenor 2	!Tenor 1	!Altus	!Cantus
*clefF4	*clefGv2	*clefGv2	*clefG2	*clefG2
*k[]	*k[]	*k[]	*k[]	*k[]
*A:aeo	*A:aeo	*A:aeo	*A:aeo	*A:aeo
*M4/2	*M4/2	*M4/2	*M4/2	*M4/2
=1	=1	=1	=1	=1
0D	0d	0f#	0a	0r
=2	=2	=2	=2	=2
1G	1d	1g	1b-	0r
2.F	1f	[1c	[1a	.
4G	.	.	.	.
=3	=3	=3	=3	=3
2A	1e	2c]	2a]	0r
2A	.	2c	2a	.
2D	2a	2d	2f	.
2G	2d	2B	2g	.
=4	=4	=4	=4	=4
1F	1.f	1c	4a	0r
.	.	.	4b	.
.	.	.	4cc	.
.	.	.	4a	.
1D	.	1d	4b	.
.	.	.	4a	.
.	2f	.	[2a	.
=5	=5	=5	=5	=5
1E	1e	1B	2a]	0ee
.	.	.	2g#	.
1A	1e	1c#	2a	.
.	.	.	2a	.
=6	=6	=6	=6	=6
4D	1a	1d	4f	1ff
4E	.	.	4g	.
4F	.	.	4a	.
4G	.	.	4b	.
2A	1a	2.c	2cc	[1ee
2A	.	.	2cc	.
.	.	4d	.	.
=7	=7	=7	=7	=7
1E	1g#	1e	2b	2ee]
.	.	.	1cc	2ee
1F	[1a	1A	.	2cc
.	.	.	4b	2dd
.	.	.	4a	.
=8	=8	=8	=8	=8
1E	2a]	2r	2cc	1ee
.	2g#	4e	2b	.
.	.	4d	.	.
1A	2r	4c	2r	2r
.	.	4B	.	.
.	2e	2A	2cc	2ee
=9	=9	=9	=9	=9
1G#	1e	1B	1b	1ee
1A	1e	1c#	1a	1ee
=10	=10	=10	=10	=10
0D	2f	2d	2a	2dd
.	1f	1d	1a	1dd
.	2d	2d	2a	2ff
=11	=11	=11	=11	=11
0r	2e	2c#	2a	2ee
.	2e	2c#	2a	2ee
.	1f#	1d	1a	1dd
=12	=12	=12	=12	=12
2r	2g	2G	2b	1dd
1G	1d	1g	1b	.
.	.	.	.	2r
2G	2d	2G	2b	[2dd
=13	=13	=13	=13	=13
1F#	1d	1A	1a	2dd]
.	.	.	.	2dd
1G	1d	1B	1g	2dd
.	.	.	.	2dd
=14	=14	=14	=14	=14
2C	2c	2c	1g	1ee
2c	2g	2c	.	.
2B	2g	2d	2r	1r
2c	2g	2e	2cc	.
=15	=15	=15	=15	=15
2.F	2a	2.f	4cc	2r
.	.	.	4b	.
.	2.A	.	4a	2cc
4E	.	4g	4g	.
2D	.	[1a	2f	2dd
.	4B	.	.	.
2A	2c	.	2e	2ee
=16	=16	=16	=16	=16
1D	2.d	2a]	2d	1ff
.	.	2A	1a	.
.	4c	.	.	.
1E	1B	[1e	.	1ee
.	.	.	2g#	.
=17	=17	=17	=17	=17
0A	1A	1e]	1a	1cc#
.	2r	2r	2r	2r
.	[2A	[2a	[2cc	[2ee
=18	=18	=18	=18	=18
0r	2A]	2a]	2cc]	2ee]
.	2A	2a	2cc	2ee
.	1c	1g	1cc	1ee
=19	=19	=19	=19	=19
0r	2d	2f	2a	1ff
.	2d	2f	2b	.
.	1c	1g	1cc	2ee
.	.	.	.	2ee
=20	=20	=20	=20	=20
1r	1G	1g	1b	1dd
2r	2c	2e	2g	2.cc
[2A	[2e	[2c	[2a	.
.	.	.	.	4dd
=21	=21	=21	=21	=21
2A]	2e]	2c]	2a]	1ee
2A	2e	2c	2a	.
1A	1e	1c	2a	1r
.	.	.	2a	.
=22	=22	=22	=22	=22
1A	2e	1c	4cc	0r
.	.	.	4b	.
.	1f	.	4a	.
.	.	.	4g	.
1B-	.	1d	2f	.
.	2d	.	2g	.
=23	=23	=23	=23	=23
2A	2e	2c	1a	0r
2A	2f	2c	.	.
1G	1g	2d	1b-	.
.	.	2e	.	.
=24	=24	=24	=24	=24
1F	2c	2.f	2a	2r
.	2.f	.	2.a	2.cc
.	.	8e	.	.
.	.	8d	.	.
1r	.	1c	.	.
.	4e	.	4g	4cc
.	2e	.	2g	2cc
=25	=25	=25	=25	=25
0r	1d	1r	2a	1ff
.	.	.	2b	.
.	4c	2r	1cc	2ee
.	4d	.	.	.
.	4e	[2c	.	4gg
.	4f	.	.	4ff
=26	=26	=26	=26	=26
0r	1g	4c]	2cc	4ee
.	.	4c	.	4dd
.	.	2c	2.cc	4cc
.	.	.	.	4b
.	1r	2f	.	2a
.	.	.	4b	.
.	.	2f	[2a	2cc
=27	=27	=27	=27	=27
1r	1r	2d	2a]	1b
.	.	2e	2g#	.
2r	2r	1f	2a	2.a
[2F	[2f	.	[2a	.
.	.	.	.	4b
=28	=28	=28	=28	=28
2F]	2f]	1c	2a]	1cc
2F	2f	.	2a	.
1c	1e	1r	1g	2r
.	.	.	.	[2cc
=29	=29	=29	=29	=29
2A	2e	0r	1.a	2cc]
2A	2a	.	.	2cc
2d	2f	.	.	1ff
2d	2f	.	2b	.
=30	=30	=30	=30	=30
1c	[0g	1r	1.cc	2ee
.	.	.	.	2ee
1r	.	2r	.	[1dd
.	.	[2G	2b	.
=31	=31	=31	=31	=31
2r	1g]	4G]	2b	2dd]
.	.	4G	.	.
2.C	.	2G	2.g	2ee
.	2r	1c	.	1ee
4C	.	.	4g	.
2C	[2c	.	2g	.
=32	=32	=32	=32	=32
1F	4c]	1A	1a	0r
.	4c	.	.	.
.	2c	.	.	.
1D	2f	[1d	[1a	.
.	2f	.	.	.
=33	=33	=33	=33	=33
1A	2e	2d]	1a]	0r
.	2f#	2c	.	.
2B	2.g	2d	2r	.
[2c	.	4e	[2g	.
.	4f	4d	.	.
=34	=34	=34	=34	=34
2c]	2e	4e	2g]	0r
.	.	4f#	.	.
2B	2d	1g	2g	.
2.A	1c	.	2.cc	.
.	.	2f#	.	.
4A	.	.	4cc	.
=35	=35	=35	=35	=35
0G	1d	1g	0b	2r
.	.	.	.	1gg
.	[1g	1d	.	.
.	.	.	.	2ff
=36	=36	=36	=36	=36
1.c	2g]	2e	1r	2ee
.	2f	2f	.	2dd
.	2e	1g	[1cc	2cc
2B	2d	.	.	2dd
=37	=37	=37	=37	=37
2A	0c	1r	2cc]	1ee
2G	.	.	2b	.
2F	.	[1a	2a	[1ff
2E	.	.	2g	.
=38	=38	=38	=38	=38
1D	1d	1a]	4f	1ff]
.	.	.	4e	.
.	.	.	1d	.
1A	1e	1a	.	[1ee
.	.	.	2c#	.
=39	=39	=39	=39	=39
0D	0f	2.a	1d	2ee]
.	.	.	.	4dd
.	.	4g	.	4cc#
.	.	4f	[1a	1dd
.	.	4e	.	.
.	.	[2d	.	.
=40	=40	=40	=40	=40
1A	1e	2d]	0a]	0ee
.	.	4c#	.	.
.	.	4B	.	.
2r	2r	1c#	.	.
[2A	[2e	.	.	.
=41	=41	=41	=41	=41
4A]	4e]	1c#	2r	0r
4A	4e	.	.	.
2A	2e	.	2.a	.
1d	1f#	2r	.	.
.	.	.	4a	.
.	.	[2d	2a	.
=42	=42	=42	=42	=42
1G	1.g	4d]	1b	0r
.	.	4d	.	.
.	.	2d	.	.
1c	.	1e	1cc	.
.	[2a	.	.	.
=43	=43	=43	=43	=43
1d	2a]	2f	2a	0r
.	4g	2d	2b	.
.	4f	.	.	.
4c	2g	1e	2.cc	.
4B	.	.	.	.
4A	2c	.	.	.
4G	.	.	4b	.
=44	=44	=44	=44	=44
2F	1c	2f	2a	1r
2C	.	2e	2g	.
[1D	1A	4d	[1f	2r
.	.	4e	.	.
.	.	4f	.	[2dd
.	.	4g	.	.
=45	=45	=45	=45	=45
1D]	2r	0a	1f]	4dd]
.	.	.	.	4dd
.	1d	.	.	2dd
1A	.	.	1e	1ee
.	2c#	.	.	.
=46	=46	=46	=46	=46
0r	2.d	2r	0a	1ff
.	.	1d	.	.
.	4e	.	.	.
.	2f	.	.	2dd
.	2e	2c#	.	2ee
=47	=47	=47	=47	=47
0r	4d	0d	2a	2.ff
.	4e	.	.	.
.	4f	.	4d	.
.	4g	.	4e	4ee
.	1a	.	4f	2dd
.	.	.	4g	.
.	.	.	[2a	2cc
=48	=48	=48	=48	=48
1r	0r	1e	2a]	1b
.	.	.	2g#	.
2r	.	[1A	1a	4a
.	.	.	.	4b
[2A	.	.	.	4cc
.	.	.	.	4dd
=49	=49	=49	=49	=49
4A]	2.e	1A]	2r	1ee
4B	.	.	.	.
2c	.	.	2a	.
.	4f	.	.	.
2G	2g	2r	2b	1r
2A	2c	[2e	2cc	.
=50	=50	=50	=50	=50
2.E	2.e	4e]	2.g	0r
.	.	4f	.	.
.	.	2g	.	.
4F	8d	.	4a	.
.	8c	.	.	.
2G	2B	2d	2b	.
2C	4A	2e	[2cc	.
.	4G	.	.	.
=51	=51	=51	=51	=51
1F	1A	2c	4cc]	0r
.	.	.	4b	.
.	.	2d	1a	.
1E	1B	1e	.	.
.	.	.	2g	.
=52	=52	=52	=52	=52
0D	1d	0a	2.f	2r
.	.	.	.	2.dd
.	.	.	4e	.
.	2r	.	1d	.
.	.	.	.	4ee
.	2d	.	.	2ff
=53	=53	=53	=53	=53
0r	2e	2r	2A	2cc
.	2.f	2.d	2.a	2dd
.	.	.	.	2.a
.	4g	4e	4g	.
.	[2a	2f	[2f	.
.	.	.	.	4b
=54	=54	=54	=54	=54
0r	2a]	1c	2f]	4cc
.	.	.	.	4dd
.	2.g	.	2e	2.ee
.	.	1d	1a	.
.	4f	.	.	4dd
.	4f	.	.	[2dd
.	8e	.	.	.
.	8d	.	.	.
=55	=55	=55	=55	=55
1r	1e	1A	1a	2dd]
.	.	.	.	2cc#
2r	2f#	1d	2a	1dd
[2G	[2g	.	4g	.
.	.	.	4a	.
=56	=56	=56	=56	=56
4G]	2g]	1G	1b-	2r
4A	.	.	.	.
2B-	2d	.	.	1dd
2F	1d	2A	2a	.
2G	.	2B-	2g	2dd
=57	=57	=57	=57	=57
0D	0f	1A	0a	1dd
.	.	1d	.	1dd
=58	=58	=58	=58	=58
0A	0e	0c#	0a	0ee
=59	=59	=59	=59	=59
0r	0r	0r	0a	1r
.	.	.	.	[1ee
=60	=60	=60	=60	=60
0r	0r	0r	1g#	1ee]
.	.	.	1a	1cc
=61	=61	=61	=61	=61
1r	0r	0r	1d	1ff
[1A	.	.	2r	1ee
.	.	.	2a	.
=62	=62	=62	=62	=62
1A]	0r	0r	2a	2r
.	.	.	2.cc	2a
1F	.	.	.	2a
.	.	.	4b-	.
.	.	.	4a	2cc
.	.	.	4g	.
=63	=63	=63	=63	=63
1B-	0r	1r	2f	1.dd
.	.	.	2g	.
[1A	.	[1e	1a	.
.	.	.	.	4cc
.	.	.	.	4b
=64	=64	=64	=64	=64
1A]	0a	1e]	0r	4cc
.	.	.	.	4dd
.	.	.	.	2ee
1r	.	1d	.	4ff
.	.	.	.	4ee
.	.	.	.	4dd
.	.	.	.	4cc
=65	=65	=65	=65	=65
1r	1g#	1e	2r	4b
.	.	.	.	4a
.	.	.	2e	2b
2r	1a	1A	2e	4cc
.	.	.	.	4dd
2A	.	.	[2cc	4ee
.	.	.	.	4ff
=66	=66	=66	=66	=66
2A	1e	2r	4cc]	0ee
.	.	.	4b	.
2.c	.	2A	4a	.
.	.	.	4g	.
.	2r	2A	[1a	.
4B	.	.	.	.
4A	2A	[2c	.	.
4G	.	.	.	.
=67	=67	=67	=67	=67
2F	2A	4c]	2a]	0r
.	.	4d	.	.
4E	2.c	4e	4g	.
4D	.	4f	4f	.
[1C	.	2.g	4e	.
.	4d	.	4d	.
.	4e	.	2c	.
.	4f	4f	.	.
=68	=68	=68	=68	=68
1C]	2g	2e	1cc	0r
.	2.e	2.g	.	.
1D	.	.	[1a	.
.	4d	4f	.	.
.	[2d	2f	.	.
=69	=69	=69	=69	=69
1A	2d]	2e	1a]	1r
.	2c#	2.e	.	.
[1A	2r	.	2r	[1ee
.	.	4d	.	.
.	[2e	4c	[2cc	.
.	.	4B	.	.
=70	=70	=70	=70	=70
2A]	2e]	2A	2cc]	2ee]
2G#	2e	2B	2b	2ee
1A	1e	1c	[1a	1ee
=71	=71	=71	=71	=71
1D	2.d	1A	1a]	1ff
.	4c	.	.	.
1E	2B	[1e	2g#	[1ee
.	2A	.	[2a	.
=72	=72	=72	=72	=72
1E	1B	1e]	2a]	1ee]
.	.	.	2g#	.
1r	1A	2c	[1a	2.ee
.	.	[2e	.	.
.	.	.	.	4dd
=73	=73	=73	=73	=73
0A	1r	4e]	0a]	4cc
.	.	4d	.	4b
.	.	4c	.	1cc
.	.	4B	.	.
.	[1e	2A	.	.
.	.	4G	.	4b
.	.	4F	.	4a
=74	=74	=74	=74	=74
1G#	1e]	1E	1r	1b
1A	1c	1e	[1a	1r
=75	=75	=75	=75	=75
1D	1f	2.d	1a]	1r
.	.	4c	.	.
1E	1e	1B	1g#	[1ee
=76	=76	=76	=76	=76
0r	1c	1A	1a	1ee]
.	2f	2r	2d	1dd
.	2f	2d	2a	.
=77	=77	=77	=77	=77
1A	1e	2c	2a	1ee
.	.	4A	2.cc	.
.	.	4B	.	.
2A	2e	4c	.	1a
.	.	4d	4b	.
[2c	2A	[2e	4a	.
.	.	.	4g	.
=78	=78	=78	=78	=78
4c]	2A	4e]	1.a	0r
4B	.	4d	.	.
4A	2.c	2e	.	.
4G	.	.	.	.
2F	.	2f	.	.
.	4d	.	.	.
2G	[2e	4e	4g	.
.	.	4d	4f	.
=79	=79	=79	=79	=79
0A	2e]	2c	2e	1r
.	1d	2f	2a	.
.	.	[1e	1a	2r
.	4c	.	.	2ee
.	4B	.	.	.
=80	=80	=80	=80	=80
0r	4c	1e]	2.g	2ee
.	4d	.	.	.
.	4e	.	.	2.gg
.	4f	.	4a	.
.	2g	1r	2b	.
.	.	.	.	4ff
.	[2a	.	2cc	4ee
.	.	.	.	4dd
=81	=81	=81	=81	=81
1r	4a]	2r	1a	2cc
.	4g	.	.	.
.	2f	1d	.	2dd
[1A	1e	.	2r	2ee
.	.	4c#	[2a	[2ee
.	.	4B	.	.
=82	=82	=82	=82	=82
2A]	2.e	2c#	2a]	2ee]
2A	.	2c#	2a	2ee
.	4e	.	.	.
1A	1e	1c#	1a	1ee
=83	=83	=83	=83	=83
2.D	2.f#	2.d	2.a	2.dd
4D	4f#	4d	4a	4dd
2D	2f#	2d	2a	2dd
2D	2f#	2d	2a	2dd
=84	=84	=84	=84	=84
1G	1g	2B	1b	1dd
.	.	2G	.	.
[1C	1e	4g	2cc	2ee
.	.	4f	.	.
.	.	4e	4c	4gg
.	.	4d	4d	4ff
=85	=85	=85	=85	=85
1C]	4g	1c	4e	4ee
.	4f	.	4f	4dd
.	4e	.	4g	2.cc
.	4d	.	8f	.
.	.	.	8g	.
2.F	4c	[1A	[1a	.
.	8d	.	.	4a
.	8e	.	.	.
.	2f	.	.	[2dd
4G	.	.	.	.
=86	=86	=86	=86	=86
1A	1e	1A]	1a]	2dd]
.	.	.	.	2cc#
1D	2d	2r	2f#	[1dd
.	2f#	2d	2a	.
=87	=87	=87	=87	=87
1r	1g	1G	1b-	1dd]
2r	2e	1A	2a	2r
2A	2f	.	2a	2cc#
=88	=88	=88	=88	=88
1B-	2d	1r	2f	1dd
.	2d	.	2g	.
2A	1e	2r	2a	2cc
2A	.	2c	[2a	2cc
=89	=89	=89	=89	=89
2F	0r	1d	2a]	2a
2G	.	.	4g	2b
.	.	.	4f	.
2A	.	2c	2.e	2cc
[2c	.	2A	.	[2ee
.	.	.	4d	.
=90	=90	=90	=90	=90
2c]	0r	2c	4e	2ee]
.	.	.	4f	.
4B	.	2d	2.g	4dd
4A	.	.	.	4cc
2G	.	[1e	.	2b
.	.	.	4f	.
[2A	.	.	4e	[2a
.	.	.	4d	.
=91	=91	=91	=91	=91
4A]	0r	1e]	4c	4a]
4G	.	.	4d	4b
2E	.	.	1e	1cc
1F	.	1A	.	.
.	.	.	2d	4b
.	.	.	.	4a
=92	=92	=92	=92	=92
1E	1r	2B	2e	1g#
.	.	1e	2b	.
1A	2r	.	2cc	1a
.	2e	2c	[2a	.
=93	=93	=93	=93	=93
0r	2f	2d	2a]	1r
.	1d	2B	2g	.
.	.	1A	2f	[1a
.	2c	.	2e	.
=94	=94	=94	=94	=94
0r	1f	1d	2d	1a]
.	.	.	1a	.
.	1e	2r	.	1b
.	.	[2e	2g#	.
=95	=95	=95	=95	=95
1A	2r	2e]	1a	1cc
.	2a	2f	.	.
2B-	2f	1d	1r	2dd
[2G	[2g	.	.	[2b-
=96	=96	=96	=96	=96
2G]	2g]	2e	0r	2b-]
2F	2c	2.f	.	1a
1B-	1d	.	.	.
.	.	4e	.	.
.	.	[2d	.	2g
=97	=97	=97	=97	=97
1A	1e	2d]	1r	1a
.	.	2c#	.	.
2r	2.f	1d	[1a	2r
[2d	.	.	.	[2ff
.	4e	.	.	.
=98	=98	=98	=98	=98
2d]	2d	0r	2a]	2ff]
2c#	2e	.	2a	2ee
1d	1f#	.	1a	1dd
=99	=99	=99	=99	=99
1G	1g	0r	1b-	1dd
2A	2e	.	2a	2cc
2A	[2f	.	2a	2cc
=100	=100	=100	=100	=100
1c	2f]	1r	1g	1cc
.	2e	.	.	.
1F	1f	2r	2f	1a
.	.	[2a	[2cc	.
=101	=101	=101	=101	=101
0r	0r	4a]	4cc]	1ee
.	.	8g#	8b	.
.	.	8f#	8a	.
.	.	2g#	2b	.
.	.	1a	1cc	1ee
=102	=102	=102	=102	=102
0r	0r	1d	2a	1ff
.	.	.	2.b	.
.	.	2e	.	2.ee
.	.	.	4g	.
.	.	2c	[2cc	.
.	.	.	.	8dd
.	.	.	.	8cc
=103	=103	=103	=103	=103
1r	1r	1g	2cc]	2dd
.	.	.	2b	2dd
1F	2r	2r	1cc	[1cc
.	[2a	[2f	.	.
=104	=104	=104	=104	=104
1c	4a]	4f]	1r	1cc]
.	8g	8e	.	.
.	8f	8d	.	.
.	2g	2e	.	.
1F	2a	1f	2r	2r
.	[2f	.	[2a	2cc
=105	=105	=105	=105	=105
2r	4f]	1c	4a]	1cc
.	8e	.	8g	.
.	8d	.	8f	.
2c	2e	.	2g	.
[1f	2f	2r	2a	[1cc
.	[2a	2F	2f	.
=106	=106	=106	=106	=106
2f]	2a]	2f	2a	2cc]
2e	2g	2g	1cc	2ee
2d	1f	2a	.	[1ff
2d	.	4g	2b	.
.	.	4f	.	.
=107	=107	=107	=107	=107
0c	1r	0g	0cc	2ff]
.	.	.	.	2ee
.	[1c	.	.	1ee
=108	=108	=108	=108	=108
0F	1c]	0f	0a	1r
.	1A	.	.	[1ff
=109	=109	=109	=109	=109
0D	1.d	1a	1f	1ff]
.	.	2.f	1a	[1dd
.	2c	.	.	.
.	.	4e	.	.
=110	=110	=110	=110	=110
0G	2B	2d	0g	2dd]
.	1c	2c	.	2ee
.	.	1d	.	1dd
.	2B	.	.	.
=111	=111	=111	=111	=111
1C	1c	1e	2g	2cc
.	.	.	2cc	2ee
1r	1r	1a	2cc	2ee
.	.	.	2a	2cc
=112	=112	=112	=112	=112
0r	0r	2g	4b	2dd
.	.	.	8a	.
.	.	.	8b	.
.	.	2e	2.cc	2ee
.	.	2f	.	4a
.	.	.	4b	4b
.	.	2f	[2a	4cc
.	.	.	.	4a
=113	=113	=113	=113	=113
1r	2r	1e	2a]	1b
.	2e	.	2g#	.
1A	2e	2r	1a	1cc
.	2c	2e	.	.
=114	=114	=114	=114	=114
2G	2d	2g	0r	2b
2E	2e	2g	.	1cc
2F	4A	2.c	.	.
.	4B	.	.	.
2F	4c	.	.	[2a
.	4A	4d	.	.
=115	=115	=115	=115	=115
1E	1B	1e	1r	2a]
.	.	.	.	2g#
1A	1A	2r	2r	1a
.	.	2e	2a	.
=116	=116	=116	=116	=116
0r	2r	2e	2g	1ee
.	1a	2c	2e	.
.	.	2d	2f	2dd
.	2g	2e	2g	2b
=117	=117	=117	=117	=117
0r	2e	2A	1a	1cc
.	2f	1a	.	.
.	2d	.	1r	1b
.	2e	2g#	.	.
=118	=118	=118	=118	=118
1A	2f	1a	1cc	4a
.	.	.	.	4b
.	4e	.	.	4cc
.	4d	.	.	4dd
2A	2c	2r	2cc	2ee
2F	2f	2a	2a	[2dd
=119	=119	=119	=119	=119
2G	1e	2g	2b-	2dd]
2A	.	2e	1a	2cc#
2D	1d	1f	.	1dd
[2d	.	.	2a	.
=120	=120	=120	=120	=120
2d]	2A	1e	1a	1ee
2c#	2.a	.	.	.
2d	.	2d	2f	1a
.	4g	.	.	.
[2D	4f	[2a	4d	.
.	4e	.	4e	.
=121	=121	=121	=121	=121
4D]	1d	4a]	4f	2r
4E	.	4g	4g	.
4F	.	2f	4a	2.a
4G	.	.	4b	.
2.A	2.c	1e	2cc	.
.	.	.	.	4b
.	.	.	2a	4cc
4B	4B	.	.	4dd
=122	=122	=122	=122	=122
2c#	2A	1a	4a	2ee
.	.	.	4g	.
2d	2.d	.	4f	2.ff
.	.	.	4e	.
1B-	.	1r	1d	.
.	4e	.	.	4ee
.	4f	.	.	[2dd
.	4g	.	.	.
=123	=123	=123	=123	=123
1A	1a	2r	1e	2dd]
.	.	2.A	.	4cc
.	.	.	.	4b
1r	2.e	.	2r	2cc
.	.	4B	.	.
.	.	4c	[2e	2cc
.	4f	4d	.	.
=124	=124	=124	=124	=124
0r	2g	2.e	4e]	2b
.	.	.	4f	.
.	2.e	.	4g	2.gg
.	.	4f	4a	.
.	.	2g	2b	.
.	4d	.	.	4ff
.	4c	2a	[2cc	[2ee
.	4B	.	.	.
=125	=125	=125	=125	=125
0r	2A	1f	2cc]	2ee]
.	1a	.	4b	2dd
.	.	.	4a	.
.	.	1e	1b	2.ee
.	2g#	.	.	.
.	.	.	.	4dd
=126	=126	=126	=126	=126
2r	4a	1A	1a	2cc
.	4g	.	.	.
2.D	4f	.	.	2dd
.	4e	.	.	.
.	1f	2r	1r	2.a
4E	.	.	.	.
4F	.	[2A	.	.
4G	.	.	.	4b
=127	=127	=127	=127	=127
2.A	1e	4A]	[0a	4cc
.	.	4B	.	4dd
.	.	4c	.	1ee
4B	.	4d	.	.
2c#	2r	2e	.	.
2d	[2a	4d	.	[2ff
.	.	4e	.	.
=128	=128	=128	=128	=128
4D	4a]	4f	1a_	4ff]
4E	4g	4g	.	4ee
4F	2f	2.a	.	1dd
4G	.	.	.	.
1A	1e	.	1a_	.
.	.	4g	.	.
.	.	2e	.	2cc#
=129	=129	=129	=129	=129
0D	2.d	2.f	0a]	0dd
.	4e	4e	.	.
.	1f	1d	.	.
=130	=130	=130	=130	=130
0A	0e	0c#	0a	0ee
==	==	==	==	==
*-	*-	*-	*-	*-
!!!CDT: 1525/^1526/-1594/2/2
!!!OCY: Italia
!!!AGN: Mass (Parody)
!!!AST: renaissance, vocal
!!!ASW: Motet 1569 (Palestrina)
!!!PWK: Masses, Book 5
!!!RNB: Cadence finals: D
!!!YOR: Le Opere Complete, v. 15, p. 130
!!!YOO: Rome, Italy: Fratelli Scalera
!!!END: 1992//
!!!EED: John Miller
!!!YEC: Copyright 2000, John Miller
!!!YEN: United States of America
!!!YEM: Rights to all derivative electronic formats reserved.
!!!YEM: Refer to licensing agreement for further details.
!!!YEM: This file must be accompanied by the licensing agreement.
!!!YEM: A copy of the licensing agreement may be found at http://www.music-cog.ohio-state.edu/HumdrumDatabases/Palestrina/license.txt
!!!EMD: converted to Humdrum by Bret Aarden
